src/assets/Villa.svg

<svg xmlns="http://www.w3.org/2000/svg" width="40" height="40" fill="none"><g clip-path="url(#a)"><mask id="b" width="40" height="40" x="0" y="0" maskUnits="userSpaceOnUse" style="mask-type:luminance"><path fill="#fff" stroke="#fff" stroke-width="2" d="M39 39V1H1v38z"/></mask><g stroke="#020A0A" stroke-linecap="round" stroke-miterlimit="10" stroke-width="2" mask="url(#b)"><path d="M1.157 38.828h37.657M22.333 1.172H2.802v37.656h19.531zm-21.176 0h22.8"/></g><path stroke="#020A0A" stroke-linecap="round" stroke-miterlimit="10" stroke-width="2" d="M12.568 5.92v1.972M7.724 5.92v1.972m9.687-1.972v1.972m-4.854 4.707v1.971m-4.843-1.971v1.971m9.687-1.971v1.971m-4.844 4.66v1.97m-4.843-1.97v1.97m9.687-1.97v1.97m-4.854 4.708v1.97m-4.844-1.97v1.97m9.687-1.97v1.97"/><mask id="c" width="40" height="40" x="0" y="0" maskUnits="userSpaceOnUse" style="mask-type:luminance"><path fill="#fff" stroke="#fff" stroke-width="2" d="M39 39V1H1v38z"/></mask><g stroke="#020A0A" stroke-linecap="round" stroke-miterlimit="10" stroke-width="2" mask="url(#c)"><path d="M37.266 14.57H22.333v24.258h14.933zm-14.933-.054h16.48"/></g><path stroke="#020A0A" stroke-linecap="round" stroke-miterlimit="10" stroke-width="2" d="M32.227 19.23v1.97m-4.844-1.97v1.97m4.834 4.708v1.97m-4.844-1.97v1.97"/><mask id="d" width="40" height="40" x="0" y="0" maskUnits="userSpaceOnUse" style="mask-type:luminance"><path fill="#fff" stroke="#fff" stroke-width="2" d="M39 39V1H1v38z"/></mask><g stroke="#020A0A" stroke-linecap="round" stroke-miterlimit="10" stroke-width="2" mask="url(#d)"><path d="M32.222 33.026v5.802m-4.844-5.802v5.802m-14.831-6.296v5.802m-4.844-5.802v5.802m9.687-5.802v5.802"/></g></g><defs><clipPath id="a"><path fill="#fff" d="M0 0h40v40H0z"/></clipPath></defs></svg>

<svg xmlns="http://www.w3.org/2000/svg" width="40" height="40" fill="none"><g clip-path="url(#a)"><mask id="b" width="40" height="40" x="0" y="0" maskUnits="userSpaceOnUse" style="mask-type:luminance"><path fill="#fff" stroke="#fff" stroke-width="2" d="M39 39V1H1v38z"/></mask><g stroke="#020A0A" stroke-linecap="round" stroke-miterlimit="10" stroke-width="2" mask="url(#b)"><path d="M1.157 38.828h37.657M22.333 1.172H2.802v37.656h19.531zM1.157 1.172h22.8"/></g><path stroke="#020A0A" stroke-linecap="round" stroke-miterlimit="10" stroke-width="2" d="M12.568 5.92v1.972M7.724 5.92v1.972M17.411 5.92v1.972M12.557 12.599v1.971M7.714 12.599v1.971M17.401 12.599v1.971M12.557 19.23V21.2M7.714 19.23V21.2M17.401 19.23V21.2M12.547 25.908v1.97M7.703 25.908v1.97M17.39 25.908v1.97"/><mask id="c" width="40" height="40" x="0" y="0" maskUnits="userSpaceOnUse" style="mask-type:luminance"><path fill="#fff" stroke="#fff" stroke-width="2" d="M39 39V1H1v38z"/></mask><g stroke="#020A0A" stroke-linecap="round" stroke-miterlimit="10" stroke-width="2" mask="url(#c)"><path d="M37.266 14.57H22.333v24.258h14.933zM22.333 14.516h16.48"/></g><path stroke="#020A0A" stroke-linecap="round" stroke-miterlimit="10" stroke-width="2" d="M32.227 19.23V21.2M27.383 19.23V21.2M32.217 25.908v1.97M27.373 25.908v1.97"/><mask id="d" width="40" height="40" x="0" y="0" maskUnits="userSpaceOnUse" style="mask-type:luminance"><path fill="#fff" stroke="#fff" stroke-width="2" d="M39 39V1H1v38z"/></mask><g stroke="#020A0A" stroke-linecap="round" stroke-miterlimit="10" stroke-width="2" mask="url(#d)"><path d="M32.222 33.026v5.802M27.378 33.026v5.802M12.547 32.532v5.802M7.703 32.532v5.802M17.39 32.532v5.802"/></g></g><defs><clipPath id="a"><path fill="#fff" d="M0 0h40v40H0z"/></clipPath></defs></svg>
